assets/bold/copy-bold.svg

<svg id="Flat" xmlns="http://www.w3.org/2000/svg" viewBox="0 0 255.99316 255.99316">
  <path d="M216,27.99316H88a12.00028,12.00028,0,0,0-12,12v36.001H39.999a12.00028,12.00028,0,0,0-12,12v128a12.00028,12.00028,0,0,0,12,12h128a12.00028,12.00028,0,0,0,12-12v-36.001H216a12.00028,12.00028,0,0,0,12-12v-128A12.00028,12.00028,0,0,0,216,27.99316Zm-60.001,176.001h-104v-104h104ZM204,155.99316H179.999v-67.999a12.00028,12.00028,0,0,0-12-12H100v-24.001H204Z"/>
</svg>

<svg xmlns="http://www.w3.org/2000/svg" viewBox="0 0 256 256"><path d="M216,28H88A12,12,0,0,0,76,40V76H40A12,12,0,0,0,28,88V216a12,12,0,0,0,12,12H168a12,12,0,0,0,12-12V180h36a12,12,0,0,0,12-12V40A12,12,0,0,0,216,28ZM156,204H52V100H156Zm48-48H180V88a12,12,0,0,0-12-12H100V52H204Z"/></svg>
